!! 00000] TT[WS
!!!OTL: Xiuxian youhu
!!!ARE: Asia, China, Shanxi Shouyang
!! Ethnic Group: Han
!! WII, 194 (3)
!!!SCT: J0693
!!!YEM: Copyright 1995, estate of Helmut Schaffrath.
**kern
*ICvox
*Ivox
*M2/4
*k[f#c#]
*D:
{8a
8f#
8e
8f#
=1
2a
=2
4dd
4ff#
=3
8ee
8dd
8cc#
8b
=4
8a
8f#
8e
8f#
=5
4a
8dd
8b
=6
8dd
4a
8dd
=7
2a}
=8
{8a
8f#
8e
8f#
=9
2a
=10
4ee
4dd
=11
8cc#
8b
4a
=12
4a
4f#
=13
8a
8dd
8f#
8e
=14
8d
4d
8e
=15
2d}
=16
{8dd
4a
8b
=17
2a
=18
8a
8f#
8e
8f#
=19
2a
=20
4ee
4dd
=21
8cc#
8b
4a}
=22
{4a
4f#
=23
8a
8b
8f#
8e
=24
8d
4d
8e
=25
2d}
==
!!!AGN: Xiaodiao, Shidiao. XÅshi
!!!ONB: ESAC (Essen Associative Code) Database: CHINA
!!!AMT: simple duple
!!!AIN: vox
!!!EED: Helmut Schaffrath
!!!EEV: 1.0
*-
